svgs/lovense_remote.svg

<svg xmlns="http://www.w3.org/2000/svg" viewBox="0 0 192 192"><path d="M166.905 16.5H25.095a8.599 8.599 0 0 0-6.078 2.517 8.599 8.599 0 0 0-2.517 6.078v141.81a8.6 8.6 0 0 0 4.297 7.444 8.6 8.6 0 0 0 4.298 1.151h141.81a8.6 8.6 0 0 0 7.444-4.297 8.6 8.6 0 0 0 1.151-4.298V25.095a8.599 8.599 0 0 0-2.517-6.078 8.599 8.599 0 0 0-6.078-2.517Z" fill="none" stroke="#000" stroke-width="12" stroke-linecap="round" stroke-linejoin="round"/><path d="M96 31.541a64.468 64.468 0 0 0-37.888 12.31 64.473 64.473 0 0 0-23.417 32.23 64.48 64.48 0 0 0 0 39.838 64.473 64.473 0 0 0 23.417 32.23A64.468 64.468 0 0 0 96 160.459a64.482 64.482 0 0 0 45.58-18.879A64.482 64.482 0 0 0 160.459 96a64.482 64.482 0 0 0-18.879-45.58A64.482 64.482 0 0 0 96 31.541Z" fill="none" stroke="#000" stroke-width="12" stroke-linecap="round" stroke-linejoin="round"/><path d="M74.943 62.051a12.9 12.9 0 0 0-9.116 3.776 12.9 12.9 0 0 0-3.776 9.116 12.896 12.896 0 0 0 22.008 9.116 12.896 12.896 0 0 0 0-18.232 12.9 12.9 0 0 0-9.116-3.776Z" fill="none" stroke="#000" stroke-width="12" stroke-linecap="round" stroke-linejoin="round"/><path d="M96 53.027a42.976 42.976 0 0 0-40.87 56.252A42.976 42.976 0 0 0 96 138.973a42.976 42.976 0 0 0 40.87-56.252A42.976 42.976 0 0 0 96 53.027Z" fill="none" stroke="#000" stroke-width="12" stroke-linecap="round" stroke-linejoin="round"/></svg>

<svg
    xmlns="http://www.w3.org/2000/svg"
    viewBox="0 0 192 192"
    id="vector">
    <path
        id="path"
        d="M 166.905 16.5 L 25.095 16.5 C 22.816 16.5 20.628 17.406 19.017 19.017 C 17.406 20.628 16.5 22.816 16.5 25.095 L 16.5 166.905 C 16.5 168.414 16.897 169.896 17.651 171.203 C 18.406 172.509 19.491 173.594 20.797 174.349 C 22.104 175.103 23.586 175.5 25.095 175.5 L 166.905 175.5 C 168.414 175.5 169.896 175.103 171.203 174.349 C 172.509 173.594 173.594 172.509 174.349 171.203 C 175.103 169.896 175.5 168.414 175.5 166.905 L 175.5 25.095 C 175.5 22.816 174.594 20.628 172.983 19.017 C 171.372 17.406 169.184 16.5 166.905 16.5 Z"
        fill="none"
        stroke="#000000"
        stroke-width="12"
        stroke-linecap="round"
        stroke-linejoin="round"/>
    <path
        id="path_1"
        d="M 96 31.541 C 82.39 31.541 69.123 35.851 58.112 43.851 C 47.101 51.851 38.901 63.137 34.695 76.081 C 30.49 89.025 30.49 102.975 34.695 115.919 C 38.901 128.863 47.101 140.149 58.112 148.149 C 69.123 156.149 82.39 160.459 96 160.459 C 113.089 160.459 129.496 153.664 141.58 141.58 C 153.664 129.496 160.459 113.089 160.459 96 C 160.459 78.911 153.664 62.504 141.58 50.42 C 129.496 38.336 113.089 31.541 96 31.541 Z"
        fill="none"
        stroke="#000000"
        stroke-width="12"
        stroke-linecap="round"
        stroke-linejoin="round"/>
    <path
        id="path_2"
        d="M 74.943 62.051 C 71.525 62.051 68.244 63.411 65.827 65.827 C 63.411 68.244 62.051 71.525 62.051 74.943 C 62.051 78.361 63.411 81.642 65.827 84.059 C 68.244 86.476 71.525 87.835 74.943 87.835 C 78.361 87.835 81.642 86.476 84.059 84.059 C 86.476 81.642 87.835 78.361 87.835 74.943 C 87.835 71.525 86.476 68.244 84.059 65.827 C 81.642 63.411 78.361 62.051 74.943 62.051 Z"
        fill="none"
        stroke="#000000"
        stroke-width="12"
        stroke-linecap="round"
        stroke-linejoin="round"/>
    <path
        id="path_3"
        d="M 96 53.027 C 86.926 53.027 78.082 55.901 70.741 61.234 C 63.4 66.567 57.934 74.091 55.13 82.721 C 52.326 91.35 52.326 100.65 55.13 109.279 C 57.934 117.909 63.4 125.433 70.741 130.766 C 78.082 136.099 86.926 138.973 96 138.973 C 105.074 138.973 113.918 136.099 121.259 130.766 C 128.6 125.433 134.066 117.909 136.87 109.279 C 139.674 100.65 139.674 91.35 136.87 82.721 C 134.066 74.091 128.6 66.567 121.259 61.234 C 113.918 55.901 105.074 53.027 96 53.027 Z"
        fill="none"
        stroke="#000000"
        stroke-width="12"
        stroke-linecap="round"
        stroke-linejoin="round"/>
</svg>
